X: 2114
T: Maud McQuillan's Reel
B: nick
B: to learn
M:4/4
R: reel
Q: 1/4=100
K:G
V:1 
dc|B3 c dcBA|GABG D3B|c3d edcB|AGFE D^cd=c|
BABc dcBA|GABG DCB,D|CEGE DFAF|GDBA G2 :|
dc|BGBd g3 f|eccB cBAB|cAce a3 g|fdd^c d=cBc|
BGBd g3 f|ec~c2 ecge|dBGB cADF|AGGF G2 :|
W: 
% abcbook-tune_id 634561e1d7b786d7e57a70aa
% abcbook-link-0 https://www.youtube.com/watch?v=RmWhRCC_lWo
% abcbook-link-title-0 Tripping Down The Stairs a) Maud McQuillan, b) The Halfway House

% abcbook-boost 0
% abcbook-tablature 
% abcbook-transpose 
% abcbook-lastupdated 1666789185026
% abcbook-soundfonts 
% abcbook-repeats 3


